icons/x-16.svg

<svg xmlns="http://www.w3.org/2000/svg" width="16" height="16" viewBox="0 0 16 16"><path d="M3.72 3.72a.75.75 0 011.06 0L8 6.94l3.22-3.22a.749.749 0 011.275.326.749.749 0 01-.215.734L9.06 8l3.22 3.22a.749.749 0 01-.326 1.275.749.749 0 01-.734-.215L8 9.06l-3.22 3.22a.751.751 0 01-1.042-.018.751.751 0 01-.018-1.042L6.94 8 3.72 4.78a.75.75 0 010-1.06z"/></svg>

<svg xmlns="http://www.w3.org/2000/svg" width="16" height="16" viewBox="0 0 16 16">
  <defs/>
  <path d="M3.72,3.72 C4.013,3.428 4.487,3.428 4.78,3.72 L8,6.94 L11.22,3.72 C11.407,3.519 11.689,3.437 11.954,3.505 C12.22,3.572 12.428,3.78 12.495,4.046 C12.563,4.311 12.481,4.593 12.28,4.78 L9.06,8 L12.28,11.22 C12.481,11.407 12.563,11.689 12.495,11.954 C12.428,12.22 12.22,12.428 11.954,12.495 C11.689,12.563 11.407,12.481 11.22,12.28 L8,9.06 L4.78,12.28 C4.484,12.555 4.024,12.547 3.738,12.262 C3.453,11.976 3.445,11.516 3.72,11.22 L6.94,8 L3.72,4.78 C3.428,4.487 3.428,4.013 3.72,3.72 Z"/>
</svg>
